SVG_Azure_All/Built-in Endpoint.svg

<?xml version="1.0" encoding="UTF-8" standalone="no"?>
<!-- Generated by Microsoft Visio, SVG Export Built-in Endpoint.svg Page-1 -->

<svg
   xmlns:dc="http://purl.org/dc/elements/1.1/"
   xmlns:cc="http://creativecommons.org/ns#"
   xmlns:rdf="http://www.w3.org/1999/02/22-rdf-syntax-ns#"
   xmlns:svg="http://www.w3.org/2000/svg"
   xmlns="http://www.w3.org/2000/svg"
   xmlns:sodipodi="http://sodipodi.sourceforge.net/DTD/sodipodi-0.dtd"
   xmlns:inkscape="http://www.inkscape.org/namespaces/inkscape"
   width="0.78625649in"
   height="0.51180351in"
   viewBox="0 0 56.610695 36.849865"
   xml:space="preserve"
   class="st3"
   version="1.1"
   id="svg29"
   sodipodi:docname="Built-in Endpoint.svg"
   style="font-size:12px;overflow:visible;color-interpolation-filters:sRGB;fill:none;fill-rule:evenodd;stroke-linecap:square;stroke-miterlimit:3"
   inkscape:version="0.92.5 (2060ec1f9f, 2020-04-08)"><metadata
   id="metadata35"><rdf:RDF><cc:Work
       rdf:about=""><dc:format>image/svg+xml</dc:format><dc:type
         rdf:resource="http://purl.org/dc/dcmitype/StillImage" /></cc:Work></rdf:RDF></metadata><defs
   id="defs33" /><sodipodi:namedview
   pagecolor="#ffffff"
   bordercolor="#666666"
   borderopacity="1"
   objecttolerance="10"
   gridtolerance="10"
   guidetolerance="10"
   inkscape:pageopacity="0"
   inkscape:pageshadow="2"
   inkscape:window-width="640"
   inkscape:window-height="480"
   id="namedview31"
   showgrid="false"
   inkscape:zoom="1.4929029"
   inkscape:cx="37.685839"
   inkscape:cy="24.565504"
   inkscape:window-x="0"
   inkscape:window-y="0"
   inkscape:window-maximized="0"
   inkscape:current-layer="svg29" />
	<style
   type="text/css"
   id="style2">
	<![CDATA[
		.st1 {fill:#ff8c00;stroke:none;stroke-linecap:butt;stroke-width:40.8553}
		.st2 {fill:#7a7a7a;stroke:none;stroke-linecap:butt;stroke-width:40.8553}
		.st3 {fill:none;fill-rule:evenodd;font-size:12px;overflow:visible;stroke-linecap:square;stroke-miterlimit:3}
	]]>
	</style>

	<g
   id="g27"
   transform="translate(-40.937505,-40.854917)">
		<title
   id="title4">Page-1</title>
		<g
   id="group7194-1"
   transform="translate(40.8553,-40.8553)">
			<title
   id="title6">Built-in Endpoint</title>
			<g
   id="group7195-2">
				<title
   id="title8">g10</title>
				<g
   id="shape7196-3"
   transform="translate(16.198,-16.378)">
					<title
   id="title10">path4</title>
					<rect
   x="0"
   y="114.467"
   width="40.4949"
   height="4.0944901"
   class="st1"
   id="rect12"
   style="fill:#ff8c00;stroke:none;stroke-width:40.8553009;stroke-linecap:butt" />
				</g>
				<g
   id="shape7197-5"
   transform="translate(10.2293,-10.5269)">
					<title
   id="title15">path6</title>
					<path
   d="m 7.99,118.56 a 7.81552,7.90236 0 1 1 0,-15.8 7.81552,7.90236 0 0 1 0,15.8 z"
   class="st1"
   id="path17"
   inkscape:connector-curvature="0"
   style="fill:#ff8c00;stroke:none;stroke-width:40.8553009;stroke-linecap:butt" />
				</g>
				<g
   id="shape7198-7">
					<title
   id="title20">path8</title>
					<path
   d="m 21.9,82.08 c 7.21,2.18 10.34,5.12 13.16,11.91 H 30.75 C 28.84,88.53 23.48,86.34 18.22,85.81 a 14.1732,14.3307 -180 0 0 0,28.66 c 5.45,-0.2 10.38,-3.03 12.53,-8.19 h 4.31 c -2.42,7.91 -9.12,11.49 -16.84,12.28 a 18.2227,18.4252 0 0 1 0,-36.85 z"
   class="st2"
   id="path22"
   inkscape:connector-curvature="0"
   style="fill:#7a7a7a;stroke:none;stroke-width:40.8553009;stroke-linecap:butt" />
				</g>
			</g>
		</g>
	</g>
</svg>

<?xml version="1.0" encoding="UTF-8" standalone="no"?>
<!DOCTYPE svg PUBLIC "-//W3C//DTD SVG 1.1//EN" "http://www.w3.org/Graphics/SVG/1.1/DTD/svg11.dtd">
<!-- Generated by Microsoft Visio, SVG Export Built-in Endpoint.svg Page-1 -->
<svg xmlns="http://www.w3.org/2000/svg" xmlns:xlink="http://www.w3.org/1999/xlink" xmlns:ev="http://www.w3.org/2001/xml-events"
		width="1.92227in" height="1.64668in" viewBox="0 0 138.404 118.561" xml:space="preserve" color-interpolation-filters="sRGB"
		class="st3">
	<style type="text/css">
	<![CDATA[
		.st1 {fill:#ff8c00;stroke:none;stroke-linecap:butt;stroke-width:40.8553}
		.st2 {fill:#7a7a7a;stroke:none;stroke-linecap:butt;stroke-width:40.8553}
		.st3 {fill:none;fill-rule:evenodd;font-size:12px;overflow:visible;stroke-linecap:square;stroke-miterlimit:3}
	]]>
	</style>

	<g>
		<title>Page-1</title>
		<g id="group7026-1" transform="translate(40.8553,-40.8553)">
			<title>Built-in Endpoint</title>
			<g id="group7027-2">
				<title>g10</title>
				<g id="shape7028-3" transform="translate(16.198,-16.378)">
					<title>path4</title>
					<rect x="0" y="114.467" width="40.4949" height="4.09449" class="st1"/>
				</g>
				<g id="shape7029-5" transform="translate(10.2293,-10.5269)">
					<title>path6</title>
					<path d="M7.99 118.56 A7.81552 7.90236 0 1 1 7.99 102.76 A7.81552 7.90236 0 0 1 7.99 118.56 Z" class="st1"/>
				</g>
				<g id="shape7030-7">
					<title>path8</title>
					<path d="M21.9 82.08 C29.11 84.26 32.24 87.2 35.06 93.99 L30.75 93.99 C28.84 88.53 23.48 86.34 18.22 85.81 A14.1732
								 14.3307 -180 0 0 18.22 114.47 C23.67 114.27 28.6 111.44 30.75 106.28 L35.06 106.28 C32.64 114.19
								 25.94 117.77 18.22 118.56 A18.2227 18.4252 0 0 1 18.22 81.71 L21.9 82.08 Z" class="st2"/>
				</g>
			</g>
		</g>
	</g>
</svg>
